dist/assets/img/svg/icon-tlg.svg

<svg width="26" height="24" viewBox="0 0 26 24"  xmlns="http://www.w3.org/2000/svg">
<path d="M0.469099 11.536L6.45549 13.7703L8.77252 21.2219C8.92073 21.6991 9.50415 21.8753 9.89145 21.5586L13.2284 18.8386C13.3985 18.6998 13.6098 18.6213 13.8292 18.6152C14.0487 18.6091 14.264 18.6757 14.4416 18.8047L20.4604 23.1742C20.8746 23.4752 21.4616 23.2484 21.5657 22.7477L25.9745 1.54058C26.0879 0.993529 25.5506 0.537364 25.0299 0.738684L0.462254 10.2161C-0.144014 10.45 -0.138901 11.3083 0.469099 11.536ZM8.39916 12.5812L20.0982 5.37563C20.3083 5.24639 20.5248 5.53085 20.344 5.69844L10.6891 14.6733C10.3499 14.9886 10.1306 15.4119 10.0686 15.8708L9.74003 18.3083C9.69615 18.6337 9.239 18.6659 9.14918 18.3508L7.88436 13.9063C7.7397 13.3995 7.95067 12.8579 8.39916 12.5812Z" />
</svg>

<svg width="26" height="24" xmlns="http://www.w3.org/2000/svg"><path d="M.47 11.536l5.985 2.234 2.318 7.452a.704.704 0 001.118.337l3.337-2.72a.994.994 0 011.214-.034l6.018 4.37a.705.705 0 001.106-.427L25.975 1.54a.706.706 0 00-.945-.802L.462 10.216c-.606.234-.6 1.092.007 1.32zm7.93 1.045l11.698-7.205c.21-.13.427.155.246.322l-9.655 8.975a2 2 0 00-.62 1.198l-.329 2.437c-.044.326-.501.358-.59.043l-1.266-4.445a1.178 1.178 0 01.515-1.325z"/></svg>161C-0.144014 10.45 -0.138901 11.3083 0.469099 11.536ZM8.39916 12.5812L20.0982 5.37563C20.3083 5.24639 20.5248 5.53085 20.344 5.69844L10.6891 14.6733C10.3499 14.9886 10.1306 15.4119 10.0686 15.8708L9.74003 18.3083C9.69615 18.6337 9.239 18.6659 9.14918 18.3508L7.88436 13.9063C7.7397 13.3995 7.95067 12.8579 8.39916 12.5812Z" />
</svg>
